!!!COM:	Bach, Johann Sebastian
!!!OMV:	Ich ruf zu dir, Herr Jesu Christ
!!!OTL:	Ich ruf zu dir, Herr Jesu Christ
**kern	**fb	**kern	**kern	**kern	**kern
*part5	*part5	*part4	*part3	*part2	*part1
*staff5	*	*staff4	*staff3	*staff2	*staff1
*I"Continuo	*	*I"Voice	*I"Voice	*I"Voice	*I"Voice
*I'Cont.	*	*I'V	*I'V	*I'V	*I'V
*clefF4	*	*clefF4	*clefGv2	*clefG2	*clefG2
*Trd0c0	*	*	*	*	*
*k[b-e-]	*	*k[b-e-]	*k[b-e-]	*k[b-e-]	*k[b-e-]
*M4/4	*	*M4/4	*M4/4	*M4/4	*M4/4
4F#X	6	4F#X	4d	4a	4dd
=2	=2	=2	=2	=2	=2
[2G	5	[2G	8d	4g	8ccL
.	6	.	4e-	.	8b-J
.	#7\ 4 2	.	.	4f#X	8a
.	.	.	16dLL	.	16b-LL
.	.	.	16cJJ	.	16ccJJ
8GL]	5 3	8GL]	[2d	8gL	8b-L
8AJ	#6\	8AJ	.	8f#J	8aJ
8B-L	6	8B-L	.	8gL	8gL
8AJ	#6\	8AJ	.	8f#J	8aJ
=3	=3	=3	=3	=3	=3
8GL	.	8GL	8dL]	4.g	8.b-L
8FJ	6 4 2	8FnJ	8dJ	.	.
.	.	.	.	.	16ccJk
4E-	6	4E-	16cLL	.	4cc
.	.	.	16B-JJ	.	.
.	.	.	16ALL	8a	.
.	.	.	16GJJ	.	.
4D;	#	4D;	4A;	4f#X;	4dd;
4GG	5	4G	4B-	4g	8ddL
.	6	.	.	.	8ee-J
=4	=4	=4	=4	=4	=4
4AA	6	4A	4c	4fn	8ffL
.	5	.	.	.	8ee-J
4BB-	8	4B-	8B-L	4f	8ddL
.	nr7	.	8A-XJ	.	8ccJ
8E-L	5	8E-L	4G	4g	4b-
8FJ	.	8FJ	.	.	.
8E-L	6 nr4 2	8E-L	8AnL	4f	8ccL
8DJ	nr6	8DJ	8BnJ	.	8ddJ
=	=	=	=	=	=
2C	5	2C	8cL	8e-	2ee-
.	.	.	8B-XJ	4g	.
.	6 #4|	.	4A	.	.
.	.	.	.	8f#X	.
4GG;	5	4GG;	4B-;	4g;	4dd;
=5:|!	=5:|!	=5:|!	=5:|!	=5:|!	=5:|!
!!linebreak:original
4D	6	4D	4B-	8fn	4ff
.	.	.	.	16b-LL	.
.	.	.	.	16a-XJJ	.
=6	=6	=6	=6	=6	=6
4E-	.	4E-	8B-L	4g	4gg
.	.	.	8e-	.	.
4F	8 6	4F	8d	4a	8ffL
.	7 5	.	8cJ	.	8ee-J
4F#X	6	4F#X	4.d	4a	8ddL
.	5	.	.	.	8ccJ
4G	.	4G	.	4b-	8b-L
.	.	.	8e-	.	8ccJ
=7	=7	=7	=7	=7	=7
8FL	6 4	8FnL	8fL	8b-L	8ddL
8E-J	6	8E-J	8g	8ccJ	8ee-J
4F	5 3	4F	8f	4a	4cc
.	.	.	8e-J	.	.
4BB-;	.	4BB-;	4d;	4f;	4b-;
4B-	5	4B-	4B-	8fL	4dd
.	6	.	.	8gJ	.
=8	=8	=8	=8	=8	=8
4F#X	6	4F#X	4A	8aL	4dd
.	5	.	.	8ccJ	.
8GL	.	8GL	4G	8b-L	4dd
8FnJ	.	8FnJ	.	8aJ	.
4E-	6 3	4E-	8cL	8gL	4cc
.	#2|	.	8dJ	8f#XJ	.
8DL	6 4	8DL	4e-	4g	8b-L
8CJ	6 5	8CJ	.	.	8aJ
=9	=9	=9	=9	=9	=9
2D	8 4	2D	8d	4g	2a
.	7	.	4c	.	.
.	#	.	.	4f#X	.
.	6	.	8B-	.	.
2E-;	5 3	2E-;	2B-;	2g;	2g;
=10	=10	=10	=10	=10	=10
!!pagebreak:original
4En	6 5	4En	4c	4.g	4b-
4F	9	4F	4c	.	4a
.	8	.	.	[8fn	.
4BB-	6 5	4BB-	4d	8f]	2g
.	.	.	.	16enLL	.
.	.	.	.	16dJJ	.
4C	n	4C	8cL	4e	.
.	.	.	8B-J	.	.
=11	=11	=11	=11	=11	=11
4FF;	.	4F;	4A;	4c;	4f;
8FL	.	8FL	4A	4c	4f
8E-J	.	8E-XJ	.	.	.
4D	6	4D	8B-L	4f	4b-
.	-r5	.	8A-XJ	.	.
8E-L	5	8E-L	8GL	8e-L	4b-
8DJ	.	8DJ	8B-J	8fJ	.
=12	=12	=12	=12	=12	=12
8CL	.	8CL	8e-L	8gL	4cc
8BB-J	.	8BB-J	8gJ	8e-J	.
4AA-X	7	4AA-X	8gL	4c	4cc
.	6	.	8fJ	.	.
4GG;	n	4GG;	4Bn;	4g;	4dd;
4CC	8	4C	8cL	4g	4ee-
.	7	.	8B-XJ	.	.
=13	=13	=13	=13	=13	=13
4DD	4	4D	4A	8gL	4dd
.	#	.	.	8f#XJ	.
8EEnL	6	8EnL	8GL	8gL	4cc
8FF#XJ	6 5	8F#XJ	8dJ	8aJ	.
8GGL	.	8GL	4.d	8gL	8b-L
8AAJ	#6\	8AJ	.	8f#J	8aJ
8BB-L	6	8B-L	.	4g	8gL
8CJ	6 5	8cJ	8e-	.	8aJ
=14	=14	=14	=14	=14	=14
!!linebreak:original
4D	6 4	4d	4.d	4g	4b-
4DD	5 #	4D	.	4f#X	4a
.	.	.	8c	.	.
4G;	.	4G;	4Bn;	4d;	4g;
=||	=||	=||	=||	=||	=||
*-	*-	*-	*-	*-	*-
!!!system-decoration: s1,s2,s3,s4,s5
